X: 171
M: C|
L: 1/8
K: D
V: 1
g | fdad fada | e=cgc egcg  | fdad fada  | fdAc dDD ||
g | fdad fada | e=cgc egcg  | fdAd cdA=c | BGEA FDD |]
V: 2 clef=bass middle=d
z | d2d2 d2d2 | =c2c2 c2c2 | d2d2 d2f2 | a2A2 d2d :|
z | d2d2 d2d2 | =c2c2 c2c2 | d2d2 d2d2 | a2A2 d2D ||
z | d2d2 d2d2 | =c2c2 c2c2 | d2c2 d2A2 | G2A2 d2d |]


